packages/ffe-icons/icons/open/400/sm/analytics.svg

<svg xmlns="http://www.w3.org/2000/svg" height="20" viewBox="0 -960 960 960" width="20"><path d="M324.21-480q-15.21 0-25.71 10.35T288-444v120q0 15.3 10.29 25.65Q308.58-288 323.79-288t25.71-10.35Q360-308.7 360-324v-120q0-15.3-10.29-25.65Q339.42-480 324.21-480Zm312-192q-15.21 0-25.71 10.35T600-636v312q0 15.3 10.29 25.65Q620.58-288 635.79-288t25.71-10.35Q672-308.7 672-324v-312q0-15.3-10.29-25.65Q651.42-672 636.21-672Zm-156 240q-15.21 0-25.71 10.35T444-396v72q0 15.3 10.29 25.65Q464.58-288 479.79-288t25.71-10.35Q516-308.7 516-324v-72q0-15.3-10.29-25.65Q495.42-432 480.21-432ZM216-144q-29.7 0-50.85-21.15Q144-186.3 144-216v-528q0-29.7 21.15-50.85Q186.3-816 216-816h528q29.7 0 50.85 21.15Q816-773.7 816-744v528q0 29.7-21.15 50.85Q773.7-144 744-144H216Zm0-72h528v-528H216v528Zm0-528v528-528Zm263.79 264q15.21 0 25.71-10.29t10.5-25.5q0-15.21-10.29-25.71t-25.5-10.5q-15.21 0-25.71 10.29t-10.5 25.5q0 15.21 10.29 25.71t25.5 10.5Z"/></svg>

<svg xmlns="http://www.w3.org/2000/svg" height="20" viewBox="0 -960 960 960" width="20"><path d="M324.211-480Q309-480 298.5-469.65 288-459.3 288-444v120q0 15.3 10.289 25.65 10.29 10.35 25.5 10.35Q339-288 349.5-298.35 360-308.7 360-324v-120q0-15.3-10.289-25.65-10.29-10.35-25.5-10.35Zm312-192Q621-672 610.5-661.65 600-651.3 600-636v312q0 15.3 10.289 25.65 10.29 10.35 25.5 10.35Q651-288 661.5-298.35 672-308.7 672-324v-312q0-15.3-10.289-25.65-10.29-10.35-25.5-10.35Zm-156 240Q465-432 454.5-421.65 444-411.3 444-396v72q0 15.3 10.289 25.65 10.29 10.35 25.5 10.35Q495-288 505.5-298.35 516-308.7 516-324v-72q0-15.3-10.289-25.65-10.29-10.35-25.5-10.35ZM216-144q-29.7 0-50.85-21.15Q144-186.3 144-216v-528q0-29.7 21.15-50.85Q186.3-816 216-816h528q29.7 0 50.85 21.15Q816-773.7 816-744v528q0 29.7-21.15 50.85Q773.7-144 744-144H216Zm0-72h528v-528H216v528Zm0-528v528-528Zm263.789 264Q495-480 505.5-490.289q10.5-10.29 10.5-25.5Q516-531 505.711-541.5q-10.29-10.5-25.5-10.5Q465-552 454.5-541.711q-10.5 10.29-10.5 25.5Q444-501 454.289-490.5q10.29 10.5 25.5 10.5Z"/></svg>
